svg/rails.svg

<svg viewBox="0 0 20 20" xmlns="http://www.w3.org/2000/svg">
<rect width="100%" height="100%" fill="#CC0000"/>
<path d="M11.0193 4.49005H10.9406L10.9293 4.48777C10.6976 4.48777 10.4681 4.49689 10.2498 4.52196L10.0991 4.04787C10.3514 4.01652 10.6054 4.00053 10.8596 4L11.0193 4.49005Z" fill="white"/>
<path d="M13.8251 7.50332L13.8656 6.99731C14.1265 7.01351 14.3859 7.04855 14.6419 7.10216L14.6104 7.59905C14.3519 7.54361 14.0891 7.51157 13.8251 7.50332Z" fill="white"/>
<path d="M11.3208 7.45317L11.5031 8.00933C11.7221 7.8958 11.9493 7.79904 12.1826 7.71985L12.0071 7.18877C11.7695 7.25972 11.5365 7.34575 11.3096 7.44633L11.3208 7.45317Z" fill="white"/>
<path d="M7.36306 4.78409L7.72081 5.34024L7.70731 5.3334C7.50031 5.43597 7.30005 5.55678 7.1088 5.69354L6.7443 5.13054C6.95805 5.00062 7.16505 4.88894 7.36306 4.78409Z" fill="white"/>
<path d="M9.32507 8.95069L9.70533 9.52963C9.84844 9.32377 10.008 9.13014 10.1823 8.95069L9.82458 8.40365C9.64362 8.57188 9.47656 8.75484 9.32507 8.95069Z" fill="white"/>
<path d="M8.82557 12.0528L8.18206 11.54C8.24359 11.2413 8.32324 10.9467 8.42056 10.6579L8.99207 11.1138C8.91376 11.4222 8.85811 11.7361 8.82557 12.0528Z" fill="white"/>
<path d="M4.70578 7.71985L4.15003 7.22068C3.94303 7.42354 3.74502 7.62412 3.56277 7.8247L4.17253 8.35578C4.33228 8.13925 4.51678 7.92043 4.70578 7.71985Z" fill="white"/>
<path d="M1.396 10.977L2.30951 11.3143L2.28588 11.3699C2.16307 11.6586 2.00855 12.0217 1.91351 12.2785L1 11.9412C1.07875 11.7246 1.24525 11.3212 1.396 10.977Z" fill="white"/>
<path d="M8.06281 13.5937C8.07379 13.9327 8.1061 14.2708 8.15956 14.6057L9.11132 14.9521C9.02998 14.6069 8.96614 14.2577 8.92007 13.9059L8.06281 13.5937Z" fill="white"/>
<path d="M9.33697 8.3859C6.9065 10.9486 7.8264 15.1892 7.8264 15.1892H1.5556C1.5556 15.1892 1.79185 12.8073 3.45912 9.99462C4.56076 8.13615 6.17812 6.57522 7.81271 5.67149C8.65198 5.20748 9.49579 4.91673 10.2767 4.84791C14.8735 4.37609 19 8.54725 19 8.54725C19 8.54725 18.9916 8.55394 18.9767 8.56587C18.9321 8.60167 18.8296 8.68458 18.7232 8.77518C14.3756 5.50933 11.6596 6.87368 10.6962 7.35762C10.6605 7.37557 10.6271 7.39234 10.5962 7.40759C10.0998 7.68794 9.68418 8.0198 9.33697 8.3859Z" fill="white"/>
<path d="M14.6192 5.30377L14.6507 4.76585C14.4047 4.64446 14.1468 4.54972 13.8812 4.48322L13.8497 5.0143C14.1107 5.0918 14.365 5.18753 14.6192 5.30377Z" fill="white"/>
</svg>

<svg xmlns="http://www.w3.org/2000/svg" viewBox="0 0 20 20">
  <rect width="100%" height="100%" fill="#C00"/>
  <path fill="#fff" d="M11.02 4.49h-.09a6 6 0 0 0-.68.03l-.15-.47c.25-.03.5-.05.76-.05l.16.49ZM13.83 7.5l.04-.5c.26.01.52.05.77.1l-.03.5a4.4 4.4 0 0 0-.78-.1ZM11.32 7.45l.18.56c.22-.11.45-.21.68-.29l-.17-.53c-.24.07-.47.16-.7.26h.01ZM7.36 4.78l.36.56h-.01c-.21.1-.41.22-.6.35l-.37-.56.62-.35ZM9.33 8.95l.38.58c.14-.2.3-.4.47-.58l-.36-.55c-.18.17-.34.35-.5.55ZM8.83 12.05l-.65-.51c.06-.3.14-.6.24-.88l.57.45c-.08.31-.13.63-.16.94ZM4.7 7.72l-.55-.5-.59.6.61.54c.16-.22.35-.44.54-.64ZM1.4 10.98l.91.33-.02.06-.38.9-.91-.33c.08-.22.25-.62.4-.96ZM8.06 13.6c.01.33.05.67.1 1l.95.35c-.08-.34-.14-.7-.19-1.04l-.86-.32Z"/>
  <path fill="#fff" d="M9.34 8.39c-2.43 2.56-1.51 6.8-1.51 6.8H1.56s.23-2.38 1.9-5.2A12.1 12.1 0 0 1 7.8 5.67a6.36 6.36 0 0 1 2.47-.82c4.6-.47 8.72 3.7 8.72 3.7l-.02.02-.26.2c-4.34-3.26-7.06-1.9-8.02-1.41l-.1.05c-.5.28-.92.61-1.26.98ZM14.62 5.3l.03-.53c-.25-.13-.5-.22-.77-.29l-.03.53c.26.08.52.18.77.3Z"/>
</svg>
